X:67
T:Dowd's Number Nine
R:reel
M:4/4
L:1/8
K:Dmaj
|:DF~F2 G2FE| D2FA BGAG|F2AF GABG|FAGE FDD2|
DF~F2 G2FE| D2FA BGAG|F2AF GABG|ABde fdd2:|
|:fd~d2 g2ag|fedf ecBA|dfaf gfeg |fedf ecBA|
fd~d2 g2ag|fedf ecBA|F2AF GABG|ABde fdd2:|

